!!!COM: Palestrina, Giovanni Perluigi da
!!!OPR: Missa Laudate Dominum
!!!OMD: Credo
!!!OTL: Crucifixus
**kern	**kern	**kern	**kern
*Ibass	*Itenor	*Icalto	*Icalto
!Bassus	!Tenor	!Altus 2	!Altus 1
*clefF4	*clefGv2	*clefG2	*clefG2
*k[b-]	*k[b-]	*k[b-]	*k[b-]
*F:ion	*F:ion	*F:ion	*F:ion
*M4/2	*M4/2	*M4/2	*M4/2
=80	=80	=80	=80
1r	0c	0r	0r
[1F	.	.	.
=81	=81	=81	=81
1F]	1A	0r	0r
1D	1B-	.	.
=82	=82	=82	=82
1E	1c	0r	0r
1F	[1d	.	.
=83	=83	=83	=83
1.G	2d]	0r	0r
.	2c	.	.
.	2B-	.	.
2F	2A	.	.
=84	=84	=84	=84
2E	2G	0r	0r
2D	4F	.	.
.	4G	.	.
2.C	4A	.	.
.	4B-	.	.
.	[2c	.	.
4D	.	.	.
=85	=85	=85	=85
4E	2c]	0r	0r
4F	.	.	.
2.G	4B-	.	.
.	4A	.	.
.	4B-	.	.
4F	4A	.	.
[2F	4A	.	.
.	8G	.	.
.	8F	.	.
=86	=86	=86	=86
2F]	1G	0r	1r
2E	.	.	.
1F	2F	.	2r
.	2A	.	2c
=87	=87	=87	=87
0r	2B-	2r	2d
.	2A	2c	2e
.	2D	2d	2f
.	2A	2e	2c
=88	=88	=88	=88
1r	1F	2f	4d
.	.	.	4c
.	.	2c	2.f
2r	1D	4d	.
.	.	4e	4e
2F	.	4f	[2d
.	.	4d	.
=89	=89	=89	=89
2G	0r	4e	2d]
.	.	4f	.
2A	.	2.e	2c
2B-	.	.	2.d
.	.	4d	.
2F	.	[2d	.
.	.	.	4f
=90	=90	=90	=90
2G	0r	2d]	1e
2A	.	2c#	.
1D	.	1d	1d
=91	=91	=91	=91
0BB-	0B-	0f	0d
=92	=92	=92	=92
1C	0G	1e	1c
2.GG	.	1d	[1B-
4AA	.	.	.
=93	=93	=93	=93
4BB-	1.F	1d	2B-]
4C	.	.	.
4D	.	.	4A
4E	.	.	4G
2F	.	[1c	2A
[2G	2E	.	2G
=94	=94	=94	=94
2G]	2F	2c]	2A
1F	2D	2B-	2F
.	1C	1c	1G
2E	.	.	.
*-	*-	*-	*-
!!!CDT: 1525/^1526/-1594/2/2
!!!OCY: Italia
!!!AGN: Mass (Parody)
!!!AST: renaissance, vocal
!!!ASW: Motet 1572 (Palestrina)
!!!PWK: Masses, Book 8vce
!!!RNB: Cadence finals: C
!!!YOR: Le Opere Complete, v. 30, p. 1
!!!YOO: Rome, Italy: Fratelli Scalera
!!!END: 1992//
!!!EED: John Miller
!!!YEC: Copyright 2000, John Miller
!!!YEN: United States of America
!!!YEM: Rights to all derivative electronic formats reserved.
!!!YEM: Refer to licensing agreement for further details.
!!!YEM: This file must be accompanied by the licensing agreement.
!!!YEM: A copy of the licensing agreement may be found at http://www.music-cog.ohio-state.edu/HumdrumDatabases/Palestrina/license.txt
!!!EMD: converted to Humdrum by Bret Aarden
